X: 18436
T: Hunting The Squirrel
R: jig
M: 6/8
K: Amajor
Ae2 e2f|e3 c3|ABc B2A|ABc B2A|
Ae2 e2f|e3 c3|ABc B2A|A6:|
|:d2e fed|d2e fed|d2e f2g|a3 agf|
ec2 e2c|ec2 B3|ABc B2A|A6:|

